!!!OTL: Die Rheinbraut Es war einmal ein Wassermann,
!!!ARE: Europa, Osteuropa, Tschechoslowakei, Ost - Boehmen
!!!ARD1: Europa%Osteuropa%Tschechoslowakei@Ost-Boehmen#?
!!!ARL1: ? / ?
!!!ARD2: Europa%Osteuropa%Tschechoslowakei@
!!!ARL2: 49.75/15.00@
!!!YOR: 2, S. 187
!!    1907 aufgezeichnet
!!!SCT: Q0047H
!!!YEM: Copyright 1995, estate of Helmut Schaffrath.
**kern
*ICvox
*Ivox
*M2/4
*k[b-]
*F:
{8cc
=1
8ff
8ff
8ee
8dd
=2
8dd
8cc
8cc}
{8cc
=3
8ff
8cc
8cc
8b-
=4
8b-
8a
8a}
{8g
=5
4a
4b-
=6
8cc
8ff
8dd
8b-
=7
4a
4g
=8
4f
8r}
==
!!!AGN: Ballade, Braut - Werbung, Todesahnung, Tod
!! Pause im Schlusstakt korrigiert.
!!!ONB: ESAC (Essen Associative Code) Database: BALLADE
!!!AMT: simple duple
!!!AIN: vox
!!!EED: Helmut Schaffrath
!!!EEV: 1.0
*-
!!!title: @{OTL} [@{SCT}]
